; G-Code generated by Simplify3D(R) Version 4.0.0
; Sep 8, 2017 at 6:59:11 PM
; Settings Summary
;   processName,Process1
;   applyToModels,Super Bigery
;   profileName,Qidi Technology Qidi Tech I (modified)
;   profileVersion,2017-08-27 23:50:31
;   baseProfile,
;   printMaterial,PLA
;   printQuality,Medium
;   printExtruders,Left Extruder Only
;   extruderName,Right Extruder,Left Extruder
;   extruderToolheadNumber,0,1
;   extruderDiameter,0.4,0.4
;   extruderAutoWidth,0,0
;   extruderWidth,0.4,0.4
;   extrusionMultiplier,0.9,0.9
;   extruderUseRetract,1,1
;   extruderRetractionDistance,1,1
;   extruderExtraRestartDistance,0,0
;   extruderRetractionZLift,0,0
;   extruderRetractionSpeed,1200,1200
;   extruderUseCoasting,0,0
;   extruderCoastingDistance,0.2,0.2
;   extruderUseWipe,0,0
;   extruderWipeDistance,5,5
;   primaryExtruder,1
;   layerHeight,0.2
;   topSolidLayers,3
;   bottomSolidLayers,3
;   perimeterOutlines,2
;   printPerimetersInsideOut,1
;   startPointOption,2
;   startPointOriginX,0
;   startPointOriginY,0
;   sequentialIslands,0
;   spiralVaseMode,0
;   firstLayerHeightPercentage,90
;   firstLayerWidthPercentage,100
;   firstLayerUnderspeed,0.5
;   useRaft,0
;   raftExtruder,1
;   raftTopLayers,3
;   raftBaseLayers,2
;   raftOffset,3
;   raftSeparationDistance,0.14
;   raftTopInfill,100
;   aboveRaftSpeedMultiplier,0.3
;   useSkirt,1
;   skirtExtruder,1
;   skirtLayers,1
;   skirtOutlines,2
;   skirtOffset,4
;   usePrimePillar,0
;   primePillarExtruder,999
;   primePillarWidth,12
;   primePillarLocation,7
;   primePillarSpeedMultiplier,1
;   useOozeShield,0
;   oozeShieldExtruder,999
;   oozeShieldOffset,2
;   oozeShieldOutlines,1
;   oozeShieldSidewallShape,1
;   oozeShieldSidewallAngle,30
;   oozeShieldSpeedMultiplier,1
;   infillExtruder,1
;   internalInfillPattern,Rectilinear
;   externalInfillPattern,Rectilinear
;   infillPercentage,20
;   outlineOverlapPercentage,10
;   infillExtrusionWidthPercentage,100
;   minInfillLength,5
;   infillLayerInterval,1
;   internalInfillAngles,45,-45
;   overlapInternalInfillAngles,0
;   externalInfillAngles,45,-45
;   generateSupport,1
;   supportExtruder,1
;   supportInfillPercentage,15
;   supportExtraInflation,0
;   supportBaseLayers,0
;   denseSupportExtruder,1
;   denseSupportLayers,0
;   denseSupportInfillPercentage,70
;   supportLayerInterval,1
;   supportHorizontalPartOffset,0.3
;   supportUpperSeparationLayers,1
;   supportLowerSeparationLayers,1
;   supportType,0
;   supportGridSpacing,4
;   maxOverhangAngle,45
;   supportAngles,0
;   temperatureName,Right Extruder,Left Extruder,Heated Build Platform
;   temperatureNumber,0,1,0
;   temperatureSetpointCount,1,1,1
;   temperatureSetpointLayers,1,1,1
;   temperatureSetpointTemperatures,0,200,50
;   temperatureStabilizeAtStartup,0,0,0
;   temperatureHeatedBed,0,0,1
;   temperatureRelayBetweenLayers,0,0,0
;   temperatureRelayBetweenLoops,0,0,0
;   fanLayers,1,2
;   fanSpeeds,0,100
;   blipFanToFullPower,0
;   adjustSpeedForCooling,1
;   minSpeedLayerTime,15
;   minCoolingSpeedSlowdown,20
;   increaseFanForCooling,0
;   minFanLayerTime,45
;   maxCoolingFanSpeed,100
;   increaseFanForBridging,1
;   bridgingFanSpeed,100
;   use5D,1
;   relativeEdistances,1
;   allowEaxisZeroing,0
;   independentExtruderAxes,1
;   includeM10123,0
;   stickySupport,1
;   applyToolheadOffsets,0
;   gcodeXoffset,0
;   gcodeYoffset,0
;   gcodeZoffset,0
;   overrideMachineDefinition,1
;   machineTypeOverride,0
;   strokeXoverride,225
;   strokeYoverride,145
;   strokeZoverride,150
;   originOffsetXoverride,112.5
;   originOffsetYoverride,72.5
;   originOffsetZoverride,0
;   homeXdirOverride,1
;   homeYdirOverride,1
;   homeZdirOverride,-1
;   flipXoverride,1
;   flipYoverride,-1
;   flipZoverride,1
;   toolheadOffsets,0,0|34,0|0,0|0,0|0,0|0,0
;   overrideFirmwareConfiguration,1
;   firmwareTypeOverride,MakerBot/Sailfish Firmware
;   GPXconfigOverride,r1d
;   baudRateOverride,115200
;   overridePrinterModels,1
;   printerModelsOverride,MakerBot_Replicator1.stl
;   startingGcode,M73 P0 ; Enable build progress,G162 X Y F3000 ; Home XY maximum,G161 Z F1200 ; Home Z minimum,G92 Z-5 ; Set Z to -5,G1 Z0 ; Move Z to 0,G161 Z F100 ; Home Z slowly,M132 X Y Z A B ; Recall home offsets,M135 T0 ; Load right extruder offsets,G1 X-110 Y-70 Z30 F9000 ; Move to wait position off table,G130 X20 Y20 Z20 A20 B20 ; Lower stepper Vrefs while heating,M126 S[fan_speed_pwm] ; Set fan speed,M140 S[bed0_temperature] T0 ; Heat buildplate ,M134 T0 ; Stabilize bed temperature,M104 S[extruder1_temperature] T1 ; Heat left extruder,M133 T1 ; Stabilize left extruder temperature,G130 X127 Y127 Z40 A127 B127 ; Default stepper Vrefs,G92 A0 B0 ; Zero extruders,M135 T1 ; Load left extruder offsets,G1 X-100 Y-68 F9000 ; Move to front left corner of bed,G1 Z0.3 F6000 ; Move down to purge,G1 X90 Y-68 E24 F2000 ; Extrude a line of filament across the front edge of the bed,G1 X100 Y-68 F180 ; Wait for ooze,G1 X110 Y-68 F5000 ; Fast wipe,G1 Z1 F100 ; Lift,G92 A0 B0 ; Zero extruders,M73 P1 ; @body (notify GPX body has started)
;   layerChangeGcode,
;   retractionGcode,
;   toolChangeGcode,
;   endingGcode,M73 P100 ; end build progress,G1 Z150 F1000 ; send Z axis to bottom of machine,M140 S0 T0 ; cool down HBP,M104 S0 T0 ; cool down right extruder,M104 S0 T1 ; cool down left extruder,M127 ; stop blower fan,G162 X Y F3000 ; home XY maximum,M18 ; disable stepper,M72 P1 ; play Ta-Da song
;   exportFileFormat,x3g
;   celebration,0
;   celebrationSong,Random Song
;   postProcessing,
;   defaultSpeed,3600
;   outlineUnderspeed,0.5
;   solidInfillUnderspeed,0.8
;   supportUnderspeed,0.8
;   rapidXYspeed,4200
;   rapidZspeed,1200
;   minBridgingArea,50
;   bridgingExtraInflation,0
;   bridgingExtrusionMultiplier,1
;   bridgingSpeedMultiplier,0.8
;   useFixedBridgingAngle,0
;   fixedBridgingAngle,0
;   applyBridgingToPerimeters,0
;   filamentDiameters,1.75|1.75|1.75|1.75|1.75|1.75
;   filamentPricesPerKg,15.11|46|46|46|46|46
;   filamentDensities,1.25|1.25|1.25|1.25|1.25|1.25
;   useMinPrintHeight,0
;   minPrintHeight,0
;   useMaxPrintHeight,0
;   maxPrintHeight,0
;   useDiaphragm,0
;   diaphragmLayerInterval,20
;   robustSlicing,1
;   mergeAllIntoSolid,0
;   onlyRetractWhenCrossingOutline,1
;   retractBetweenLayers,1
;   useRetractionMinTravel,0
;   retractionMinTravel,3
;   retractWhileWiping,0
;   onlyWipeOutlines,1
;   avoidCrossingOutline,0
;   maxMovementDetourFactor,3
;   toolChangeRetractionDistance,12
;   toolChangeExtraRestartDistance,-0.5
;   toolChangeRetractionSpeed,600
;   externalThinWallType,0
;   internalThinWallType,2
;   thinWallAllowedOverlapPercentage,10
;   singleExtrusionMinLength,1
;   singleExtrusionMinPrintingWidthPercentage,50
;   singleExtrusionMaxPrintingWidthPercentage,200
;   singleExtrusionEndpointExtension,0.2
;   horizontalSizeCompensation,0
G90
M83
M73 P0 ; Enable build progress
G162 X Y F3000 ; Home XY maximum
G161 Z F1200 ; Home Z minimum
G92 Z-5 ; Set Z to -5
G1 Z0 ; Move Z to 0
G161 Z F100 ; Home Z slowly
M132 X Y Z A B ; Recall home offsets
M135 T0 ; Load right extruder offsets
G1 X-110 Y-70 Z30 F9000 ; Move to wait position off table
G130 X20 Y20 Z20 A20 B20 ; Lower stepper Vrefs while heating
M127 ; Set fan speed
M140 S50 T0 ; Heat buildplate 
M134 T0 ; Stabilize bed temperature
M104 S200 T1 ; Heat left extruder
M133 T1 ; Stabilize left extruder temperature
G130 X127 Y127 Z40 A127 B127 ; Default stepper Vrefs
G92 A0 B0 ; Zero extruders
M135 T1 ; Load left extruder offsets
G1 X-100 Y-68 F9000 ; Move to front left corner of bed
G1 Z0.3 F6000 ; Move down to purge
G1 X90 Y-68 E24 F2000 ; Extrude a line of filament across the front edge of the bed
G1 X100 Y-68 F180 ; Wait for ooze
G1 X110 Y-68 F5000 ; Fast wipe
G1 Z1 F100 ; Lift
G92 A0 B0 ; Zero extruders
M73 P1 ; @body (notify GPX body has started)
G1 E-1.0000 F1200
G1 Z0.180 F1200
; process Process1
; layer 1, Z = 0.180
M135 T1
; tool H0.200 W0.400
; skirt
G1 X36.776 Y26.175 F4200
G1 E1.0000 F360
G1 X-36.776 Y26.175 E2.2017 F1800
G1 X-36.996 Y26.083 E0.0071
G1 X-39.508 Y23.571 E0.1063
G1 X-39.600 Y23.351 E0.0071
G1 X-39.600 Y-23.351 E1.3980
G1 X-39.508 Y-23.571 E0.0071
G1 X-36.996 Y-26.083 E0.1063
G1 X-36.776 Y-26.175 E0.0071
G1 X36.776 Y-26.175 E2.2017
G1 X36.996 Y-26.083 E0.0071
G1 X39.508 Y-23.571 E0.1063
G1 X39.600 Y-23.351 E0.0071
G1 X39.600 Y23.351 E1.3980
G1 X39.508 Y23.571 E0.0071
G1 X36.996 Y26.083 E0.1063
G1 X36.776 Y26.175 E0.0071
G1 X36.696 Y25.775 F4200
G1 X-36.696 Y25.775 E2.1969 F1800
G1 X-36.770 Y25.744 E0.0024
G1 X-39.169 Y23.345 E0.1016
G1 X-39.200 Y23.271 E0.0024
G1 X-39.200 Y-23.271 E1.3932
G1 X-39.169 Y-23.345 E0.0024
G1 X-36.770 Y-25.744 E0.1016
G1 X-36.696 Y-25.775 E0.0024
G1 X36.696 Y-25.775 E2.1969
G1 X36.770 Y-25.744 E0.0024
G1 X39.169 Y-23.345 E0.1016
G1 X39.200 Y-23.271 E0.0024
G1 X39.200 Y23.271 E1.3932
G1 X39.169 Y23.345 E0.0024
G1 X36.770 Y25.744 E0.1016
G1 X36.696 Y25.775 E0.0024
G1 E-1.0000 F1200
; inner perimeter
G1 X34.400 Y20.975 F4200
G1 E1.0000 F1200
G1 X-34.400 Y20.975 E2.0595 F1350
G1 X-34.400 Y-20.975 E1.2557
G1 X34.400 Y-20.975 E2.0595
G1 X34.400 Y20.975 E1.2557
; outer perimeter
G1 X34.800 Y21.375 F4200
G1 X-34.800 Y21.375 E2.0834 F900
G1 X-34.800 Y-21.375 E1.2797
G1 X34.800 Y-21.375 E2.0834
G1 X34.800 Y21.375 E1.2797
; solid layer
G1 X33.691 Y-20.615 F4200
G1 X34.040 Y-20.266 E0.0148 F1440
G1 X34.040 Y-19.700 E0.0169
G1 X33.125 Y-20.615 E0.0387
G1 X32.560 Y-20.615 E0.0169
G1 X34.040 Y-19.135 E0.0627
G1 X34.040 Y-18.569 E0.0169
G1 X31.994 Y-20.615 E0.0866
G1 X31.428 Y-20.615 E0.0169
G1 X34.040 Y-18.003 E0.1105
G1 X34.040 Y-17.438 E0.0169
G1 X30.863 Y-20.615 E0.1345
G1 X30.297 Y-20.615 E0.0169
G1 X34.040 Y-16.872 E0.1584
G1 X34.040 Y-16.306 E0.0169
G1 X29.731 Y-20.615 E0.1824
G1 X29.166 Y-20.615 E0.0169
G1 X34.040 Y-15.741 E0.2063
G1 X34.040 Y-15.175 E0.0169
G1 X28.600 Y-20.615 E0.2303
G1 X28.034 Y-20.615 E0.0169
G1 X34.040 Y-14.609 E0.2542
G1 X34.040 Y-14.044 E0.0169
G1 X27.469 Y-20.615 E0.2782
G1 X26.903 Y-20.615 E0.0169
G1 X34.040 Y-13.478 E0.3021
G1 X34.040 Y-12.912 E0.0169
G1 X26.337 Y-20.615 E0.3261
G1 X25.771 Y-20.615 E0.0169
G1 X34.040 Y-12.346 E0.3500
G1 X34.040 Y-11.781 E0.0169
G1 X25.206 Y-20.615 E0.3740
G1 X24.640 Y-20.615 E0.0169
G1 X34.040 Y-11.215 E0.3979
G1 X34.040 Y-10.649 E0.0169
G1 X24.074 Y-20.615 E0.4219
G1 X23.509 Y-20.615 E0.0169
G1 X34.040 Y-10.084 E0.4458
G1 X34.040 Y-9.518 E0.0169
G1 X22.943 Y-20.615 E0.4698
G1 X22.377 Y-20.615 E0.0169
G1 X34.040 Y-8.952 E0.4937
G1 X34.040 Y-8.387 E0.0169
G1 X21.812 Y-20.615 E0.5177
G1 X21.246 Y-20.615 E0.0169
G1 X34.040 Y-7.821 E0.5416
G1 X34.040 Y-7.255 E0.0169
G1 X20.680 Y-20.615 E0.5655
G1 X20.115 Y-20.615 E0.0169
G1 X34.040 Y-6.690 E0.5895
G1 X34.040 Y-6.124 E0.0169
G1 X19.549 Y-20.615 E0.6134
G1 X18.983 Y-20.615 E0.0169
G1 X34.040 Y-5.558 E0.6374
G1 X34.040 Y-4.993 E0.0169
G1 X18.418 Y-20.615 E0.6613
G1 X17.852 Y-20.615 E0.0169
G1 X34.040 Y-4.427 E0.6853
G1 X34.040 Y-3.861 E0.0169
G1 X17.286 Y-20.615 E0.7092
G1 X16.721 Y-20.615 E0.0169
G1 X34.040 Y-3.295 E0.7332
G1 X34.040 Y-2.730 E0.0169
G1 X16.155 Y-20.615 E0.7571
G1 X15.589 Y-20.615 E0.0169
G1 X34.040 Y-2.164 E0.7811
G1 X34.040 Y-1.598 E0.0169
G1 X15.023 Y-20.615 E0.8050
G1 X14.458 Y-20.615 E0.0169
G1 X34.040 Y-1.033 E0.8290
G1 X34.040 Y-0.467 E0.0169
G1 X13.892 Y-20.615 E0.8529
G1 X13.326 Y-20.615 E0.0169
G1 X34.040 Y0.099 E0.8769
G1 X34.040 Y0.664 E0.0169
G1 X12.761 Y-20.615 E0.9008
G1 X12.195 Y-20.615 E0.0169
G1 X34.040 Y1.230 E0.9248
G1 X34.040 Y1.796 E0.0169
G1 X11.629 Y-20.615 E0.9487
G1 X11.064 Y-20.615 E0.0169
G1 X34.040 Y2.361 E0.9727
G1 X34.040 Y2.927 E0.0169
G1 X10.498 Y-20.615 E0.9966
G1 X9.932 Y-20.615 E0.0169
G1 X34.040 Y3.493 E1.0205
G1 X34.040 Y4.058 E0.0169
G1 X9.367 Y-20.615 E1.0445
G1 X8.801 Y-20.615 E0.0169
G1 X34.040 Y4.624 E1.0684
G1 X34.040 Y5.190 E0.0169
G1 X8.235 Y-20.615 E1.0924
G1 X7.670 Y-20.615 E0.0169
G1 X34.040 Y5.755 E1.1163
G1 X34.040 Y6.321 E0.0169
G1 X7.104 Y-20.615 E1.1403
G1 X6.538 Y-20.615 E0.0169
G1 X34.040 Y6.887 E1.1642
G1 X34.040 Y7.453 E0.0169
G1 X5.972 Y-20.615 E1.1882
G1 X5.407 Y-20.615 E0.0169
G1 X34.040 Y8.018 E1.2121
G1 X34.040 Y8.584 E0.0169
G1 X4.841 Y-20.615 E1.2361
G1 X4.275 Y-20.615 E0.0169
G1 X34.040 Y9.150 E1.2600
G1 X34.040 Y9.715 E0.0169
G1 X3.710 Y-20.615 E1.2840
G1 X3.144 Y-20.615 E0.0169
G1 X34.040 Y10.281 E1.3079
G1 X34.040 Y10.847 E0.0169
G1 X2.578 Y-20.615 E1.3319
G1 X2.013 Y-20.615 E0.0169
G1 X34.040 Y11.412 E1.3558
G1 X34.040 Y11.978 E0.0169
G1 X1.447 Y-20.615 E1.3798
G1 X0.881 Y-20.615 E0.0169
G1 X34.040 Y12.544 E1.4037
G1 X34.040 Y13.109 E0.0169
G1 X0.316 Y-20.615 E1.4277
G1 X-0.250 Y-20.615 E0.0169
G1 X34.040 Y13.675 E1.4516
G1 X34.040 Y14.241 E0.0169
G1 X-0.816 Y-20.615 E1.4755
G1 X-1.381 Y-20.615 E0.0169
G1 X34.040 Y14.806 E1.4995
G1 X34.040 Y15.372 E0.0169
G1 X-1.947 Y-20.615 E1.5234
G1 X-2.513 Y-20.615 E0.0169
G1 X34.040 Y15.938 E1.5474
G1 X34.040 Y16.503 E0.0169
G1 X-3.078 Y-20.615 E1.5713
G1 X-3.644 Y-20.615 E0.0169
G1 X34.040 Y17.069 E1.5953
G1 X34.040 Y17.635 E0.0169
G1 X-4.210 Y-20.615 E1.6192
G1 X-4.776 Y-20.615 E0.0169
G1 X34.040 Y18.201 E1.6432
G1 X34.040 Y18.766 E0.0169
G1 X-5.341 Y-20.615 E1.6671
G1 X-5.907 Y-20.615 E0.0169
G1 X34.040 Y19.332 E1.6911
G1 X34.040 Y19.898 E0.0169
G1 X-6.473 Y-20.615 E1.7150
G1 X-7.038 Y-20.615 E0.0169
G1 X34.040 Y20.463 E1.7390
G1 X34.040 Y20.615 E0.0045
G1 X33.626 Y20.615 E0.0124
G1 X-7.604 Y-20.615 E1.7454
G1 X-8.170 Y-20.615 E0.0169
G1 X33.060 Y20.615 E1.7454
G1 X32.494 Y20.615 E0.0169
G1 X-8.735 Y-20.615 E1.7454
G1 X-9.301 Y-20.615 E0.0169
G1 X31.928 Y20.615 E1.7454
G1 X31.363 Y20.615 E0.0169
G1 X-9.867 Y-20.615 E1.7454
G1 X-10.432 Y-20.615 E0.0169
G1 X30.797 Y20.615 E1.7454
G1 X30.231 Y20.615 E0.0169
G1 X-10.998 Y-20.615 E1.7454
G1 X-11.564 Y-20.615 E0.0169
G1 X29.666 Y20.615 E1.7454
G1 X29.100 Y20.615 E0.0169
G1 X-12.129 Y-20.615 E1.7454
G1 X-12.695 Y-20.615 E0.0169
G1 X28.534 Y20.615 E1.7454
G1 X27.969 Y20.615 E0.0169
G1 X-13.261 Y-20.615 E1.7454
G1 X-13.826 Y-20.615 E0.0169
G1 X27.403 Y20.615 E1.7454
G1 X26.837 Y20.615 E0.0169
G1 X-14.392 Y-20.615 E1.7454
G1 X-14.958 Y-20.615 E0.0169
G1 X26.272 Y20.615 E1.7454
G1 X25.706 Y20.615 E0.0169
G1 X-15.524 Y-20.615 E1.7454
G1 X-16.089 Y-20.615 E0.0169
G1 X25.140 Y20.615 E1.7454
G1 X24.575 Y20.615 E0.0169
G1 X-16.655 Y-20.615 E1.7454
G1 X-17.221 Y-20.615 E0.0169
G1 X24.009 Y20.615 E1.7454
G1 X23.443 Y20.615 E0.0169
G1 X-17.786 Y-20.615 E1.7454
G1 X-18.352 Y-20.615 E0.0169
G1 X22.877 Y20.615 E1.7454
G1 X22.312 Y20.615 E0.0169
G1 X-18.918 Y-20.615 E1.7454
G1 X-19.483 Y-20.615 E0.0169
G1 X21.746 Y20.615 E1.7454
G1 X21.180 Y20.615 E0.0169
G1 X-20.049 Y-20.615 E1.7454
G1 X-20.615 Y-20.615 E0.0169
G1 X20.615 Y20.615 E1.7454
G1 X20.049 Y20.615 E0.0169
G1 X-21.180 Y-20.615 E1.7454
G1 X-21.746 Y-20.615 E0.0169
G1 X19.483 Y20.615 E1.7454
G1 X18.918 Y20.615 E0.0169
G1 X-22.312 Y-20.615 E1.7454
G1 X-22.877 Y-20.615 E0.0169
G1 X18.352 Y20.615 E1.7454
G1 X17.786 Y20.615 E0.0169
G1 X-23.443 Y-20.615 E1.7454
G1 X-24.009 Y-20.615 E0.0169
G1 X17.221 Y20.615 E1.7454
G1 X16.655 Y20.615 E0.0169
G1 X-24.575 Y-20.615 E1.7454
G1 X-25.140 Y-20.615 E0.0169
G1 X16.089 Y20.615 E1.7454
G1 X15.524 Y20.615 E0.0169
G1 X-25.706 Y-20.615 E1.7454
G1 X-26.272 Y-20.615 E0.0169
G1 X14.958 Y20.615 E1.7454
G1 X14.392 Y20.615 E0.0169
G1 X-26.837 Y-20.615 E1.7454
G1 X-27.403 Y-20.615 E0.0169
G1 X13.827 Y20.615 E1.7454
G1 X13.261 Y20.615 E0.0169
G1 X-27.969 Y-20.615 E1.7454
G1 X-28.534 Y-20.615 E0.0169
G1 X12.695 Y20.615 E1.7454
G1 X12.129 Y20.615 E0.0169
G1 X-29.100 Y-20.615 E1.7454
G1 X-29.666 Y-20.615 E0.0169
G1 X11.564 Y20.615 E1.7454
G1 X10.998 Y20.615 E0.0169
G1 X-30.231 Y-20.615 E1.7454
G1 X-30.797 Y-20.615 E0.0169
G1 X10.432 Y20.615 E1.7454
G1 X9.867 Y20.615 E0.0169
G1 X-31.363 Y-20.615 E1.7454
G1 X-31.928 Y-20.615 E0.0169
G1 X9.301 Y20.615 E1.7454
G1 X8.735 Y20.615 E0.0169
G1 X-32.494 Y-20.615 E1.7454
G1 X-33.060 Y-20.615 E0.0169
G1 X8.170 Y20.615 E1.7454
G1 X7.604 Y20.615 E0.0169
G1 X-33.625 Y-20.615 E1.7454
G1 X-34.040 Y-20.615 E0.0124
G1 X-34.040 Y-20.463 E0.0045
