; G-Code generated by Simplify3D(R) Version 4.0.0
; Oct 8, 2017 at 6:00:29 PM
; Settings Summary
;   processName,Process1
;   applyToModels,a7c35424-3063-49e1-a8ca-53b0a508d878
;   profileName,Qidi Technology Qidi Tech I (modified)
;   profileVersion,2017-08-27 23:50:31
;   baseProfile,
;   printMaterial,PLA
;   printQuality,Medium
;   printExtruders,Right Extruder Only
;   extruderName,Right Extruder,Left Extruder
;   extruderToolheadNumber,0,1
;   extruderDiameter,0.4,0.4
;   extruderAutoWidth,0,0
;   extruderWidth,0.4,0.4
;   extrusionMultiplier,0.9,0.9
;   extruderUseRetract,1,1
;   extruderRetractionDistance,1,1
;   extruderExtraRestartDistance,0,0
;   extruderRetractionZLift,0,0
;   extruderRetractionSpeed,1200,1200
;   extruderUseCoasting,0,0
;   extruderCoastingDistance,0.2,0.2
;   extruderUseWipe,0,0
;   extruderWipeDistance,5,5
;   primaryExtruder,0
;   layerHeight,0.2
;   topSolidLayers,3
;   bottomSolidLayers,3
;   perimeterOutlines,2
;   printPerimetersInsideOut,1
;   startPointOption,2
;   startPointOriginX,0
;   startPointOriginY,0
;   sequentialIslands,0
;   spiralVaseMode,0
;   firstLayerHeightPercentage,90
;   firstLayerWidthPercentage,100
;   firstLayerUnderspeed,0.5
;   useRaft,0
;   raftExtruder,0
;   raftTopLayers,3
;   raftBaseLayers,2
;   raftOffset,3
;   raftSeparationDistance,0.14
;   raftTopInfill,100
;   aboveRaftSpeedMultiplier,0.3
;   useSkirt,1
;   skirtExtruder,0
;   skirtLayers,1
;   skirtOutlines,2
;   skirtOffset,4
;   usePrimePillar,0
;   primePillarExtruder,999
;   primePillarWidth,12
;   primePillarLocation,7
;   primePillarSpeedMultiplier,1
;   useOozeShield,0
;   oozeShieldExtruder,999
;   oozeShieldOffset,2
;   oozeShieldOutlines,1
;   oozeShieldSidewallShape,1
;   oozeShieldSidewallAngle,30
;   oozeShieldSpeedMultiplier,1
;   infillExtruder,0
;   internalInfillPattern,Fast Honeycomb
;   externalInfillPattern,Rectilinear
;   infillPercentage,10
;   outlineOverlapPercentage,10
;   infillExtrusionWidthPercentage,100
;   minInfillLength,5
;   infillLayerInterval,1
;   internalInfillAngles,0
;   overlapInternalInfillAngles,0
;   externalInfillAngles,45,-45
;   generateSupport,0
;   supportExtruder,0
;   supportInfillPercentage,15
;   supportExtraInflation,0
;   supportBaseLayers,0
;   denseSupportExtruder,0
;   denseSupportLayers,0
;   denseSupportInfillPercentage,70
;   supportLayerInterval,1
;   supportHorizontalPartOffset,0.3
;   supportUpperSeparationLayers,1
;   supportLowerSeparationLayers,1
;   supportType,0
;   supportGridSpacing,4
;   maxOverhangAngle,45
;   supportAngles,0
;   temperatureName,Right Extruder,Left Extruder,Heated Build Platform
;   temperatureNumber,0,1,0
;   temperatureSetpointCount,1,1,1
;   temperatureSetpointLayers,1,1,1
;   temperatureSetpointTemperatures,225,0,50
;   temperatureStabilizeAtStartup,0,0,0
;   temperatureHeatedBed,0,0,1
;   temperatureRelayBetweenLayers,0,0,0
;   temperatureRelayBetweenLoops,0,0,0
;   fanLayers,1,2
;   fanSpeeds,0,100
;   blipFanToFullPower,0
;   adjustSpeedForCooling,1
;   minSpeedLayerTime,15
;   minCoolingSpeedSlowdown,20
;   increaseFanForCooling,0
;   minFanLayerTime,45
;   maxCoolingFanSpeed,100
;   increaseFanForBridging,1
;   bridgingFanSpeed,100
;   use5D,1
;   relativeEdistances,1
;   allowEaxisZeroing,0
;   independentExtruderAxes,1
;   includeM10123,0
;   stickySupport,1
;   applyToolheadOffsets,0
;   gcodeXoffset,0
;   gcodeYoffset,0
;   gcodeZoffset,0
;   overrideMachineDefinition,1
;   machineTypeOverride,0
;   strokeXoverride,225
;   strokeYoverride,145
;   strokeZoverride,150
;   originOffsetXoverride,112.5
;   originOffsetYoverride,72.5
;   originOffsetZoverride,0
;   homeXdirOverride,1
;   homeYdirOverride,1
;   homeZdirOverride,-1
;   flipXoverride,1
;   flipYoverride,-1
;   flipZoverride,1
;   toolheadOffsets,0,0|34,0|0,0|0,0|0,0|0,0
;   overrideFirmwareConfiguration,1
;   firmwareTypeOverride,MakerBot/Sailfish Firmware
;   GPXconfigOverride,r1d
;   baudRateOverride,115200
;   overridePrinterModels,1
;   printerModelsOverride,MakerBot_Replicator1.stl
;   startingGcode,M73 P0 ; Enable build progress,G162 X Y F3000 ; Home XY maximum,G161 Z F1200 ; Home Z minimum,G92 Z-5 ; Set Z to -5,G1 Z0 ; Move Z to 0,G161 Z F100 ; Home Z slowly,M132 X Y Z A B ; Recall home offsets,M135 T0 ; Load right extruder offsets,G1 X-110 Y-70 Z30 F9000 ; Move to wait position off table,G130 X20 Y20 Z20 A20 B20 ; Lower stepper Vrefs while heating,M126 S[fan_speed_pwm] ; Set fan speed,M140 S[bed0_temperature] T0 ; Heat buildplate ,M134 T0 ; Stabilize bed temperature,M104 S[extruder0_temperature] T0 ; Heat right extruder,M133 T0 ; Stabilize right extruder temperature,G130 X127 Y127 Z40 A127 B127 ; Default stepper Vrefs,G92 A0 B0 ; Zero extruders,G1 X100 Y-70 F9000 ; Move to front right corner of bed,G1 Z0.3 F6000 ; Move down to purge,G1 X-90 Y-70 E24 F2000 ; Extrude a line of filament across the front edge of the bed,G1 X-100 Y-70 F180 ; Wait for ooze,G1 X-110 Y-70 F5000 ; Fast wipe,G1 Z0.5 F100 ; Lift,M73 P1 ; @body (notify GPX body has started)
;   layerChangeGcode,
;   retractionGcode,
;   toolChangeGcode,
;   endingGcode,M73 P100 ; end build progress,G1 Z150 F1000 ; send Z axis to bottom of machine,M140 S0 T0 ; cool down HBP,M104 S0 T0 ; cool down right extruder,M104 S0 T1 ; cool down left extruder,M127 ; stop blower fan,G162 X Y F3000 ; home XY maximum,M18 ; disable stepper,M72 P1 ; play Ta-Da song
;   exportFileFormat,x3g
;   celebration,0
;   celebrationSong,Random Song
;   postProcessing,
;   defaultSpeed,3600
;   outlineUnderspeed,0.5
;   solidInfillUnderspeed,0.8
;   supportUnderspeed,0.8
;   rapidXYspeed,4200
;   rapidZspeed,1200
;   minBridgingArea,50
;   bridgingExtraInflation,0
;   bridgingExtrusionMultiplier,1
;   bridgingSpeedMultiplier,0.8
;   useFixedBridgingAngle,0
;   fixedBridgingAngle,0
;   applyBridgingToPerimeters,0
;   filamentDiameters,1.75|1.75|1.75|1.75|1.75|1.75
;   filamentPricesPerKg,15.11|46|46|46|46|46
;   filamentDensities,1.25|1.25|1.25|1.25|1.25|1.25
;   useMinPrintHeight,0
;   minPrintHeight,0
;   useMaxPrintHeight,0
;   maxPrintHeight,0
;   useDiaphragm,0
;   diaphragmLayerInterval,20
;   robustSlicing,1
;   mergeAllIntoSolid,0
;   onlyRetractWhenCrossingOutline,1
;   retractBetweenLayers,1
;   useRetractionMinTravel,0
;   retractionMinTravel,3
;   retractWhileWiping,0
;   onlyWipeOutlines,1
;   avoidCrossingOutline,0
;   maxMovementDetourFactor,3
;   toolChangeRetractionDistance,12
;   toolChangeExtraRestartDistance,-0.5
;   toolChangeRetractionSpeed,600
;   externalThinWallType,0
;   internalThinWallType,2
;   thinWallAllowedOverlapPercentage,10
;   singleExtrusionMinLength,1
;   singleExtrusionMinPrintingWidthPercentage,50
;   singleExtrusionMaxPrintingWidthPercentage,200
;   singleExtrusionEndpointExtension,0.2
;   horizontalSizeCompensation,0
G90
M83
M73 P0 ; Enable build progress
G162 X Y F3000 ; Home XY maximum
G161 Z F1200 ; Home Z minimum
G92 Z-5 ; Set Z to -5
G1 Z0 ; Move Z to 0
G161 Z F100 ; Home Z slowly
M132 X Y Z A B ; Recall home offsets
M135 T0 ; Load right extruder offsets
G1 X-110 Y-70 Z30 F9000 ; Move to wait position off table
G130 X20 Y20 Z20 A20 B20 ; Lower stepper Vrefs while heating
M127 ; Set fan speed
M140 S50 T0 ; Heat buildplate 
M134 T0 ; Stabilize bed temperature
M104 S225 T0 ; Heat right extruder
M133 T0 ; Stabilize right extruder temperature
G130 X127 Y127 Z40 A127 B127 ; Default stepper Vrefs
G92 A0 B0 ; Zero extruders
G1 X100 Y-70 F9000 ; Move to front right corner of bed
G1 Z0.3 F6000 ; Move down to purge
G1 X-90 Y-70 E24 F2000 ; Extrude a line of filament across the front edge of the bed
G1 X-100 Y-70 F180 ; Wait for ooze
G1 X-110 Y-70 F5000 ; Fast wipe
G1 Z0.5 F100 ; Lift
M73 P1 ; @body (notify GPX body has started)
G1 E-1.0000 F1200
G1 Z0.180 F1200
; process Process1
; layer 1, Z = 0.180
M135 T0
; tool H0.200 W0.400
; skirt
G1 X24.333 Y7.015 F4200
G1 E1.0000 F360
G1 X24.307 Y7.109 E0.0029 F1800
G1 X24.305 Y7.116 E0.0002
G1 X23.986 Y8.170 E0.0330
G1 X23.984 Y8.176 E0.0002
G1 X23.954 Y8.268 E0.0029
G1 X23.952 Y8.275 E0.0002
G1 X23.587 Y9.311 E0.0329
G1 X23.584 Y9.317 E0.0002
G1 X23.550 Y9.408 E0.0029
G1 X23.548 Y9.414 E0.0002
G1 X23.137 Y10.431 E0.0328
G1 X23.134 Y10.437 E0.0002
G1 X23.096 Y10.525 E0.0029
G1 X23.093 Y10.531 E0.0002
G1 X22.638 Y11.527 E0.0328
G1 X22.635 Y11.533 E0.0002
G1 X22.593 Y11.620 E0.0029
G1 X22.590 Y11.626 E0.0002
G1 X22.092 Y12.600 E0.0328
G1 X22.088 Y12.606 E0.0002
G1 X22.043 Y12.690 E0.0029
G1 X22.040 Y12.696 E0.0002
G1 X21.498 Y13.646 E0.0327
G1 X21.495 Y13.652 E0.0002
G1 X21.446 Y13.734 E0.0029
G1 X21.442 Y13.739 E0.0002
G1 X20.859 Y14.664 E0.0327
G1 X20.855 Y14.670 E0.0002
G1 X20.803 Y14.750 E0.0029
G1 X20.799 Y14.755 E0.0002
G1 X20.175 Y15.653 E0.0327
G1 X20.171 Y15.659 E0.0002
G1 X20.115 Y15.736 E0.0029
G1 X20.111 Y15.742 E0.0002
G1 X19.495 Y16.550 E0.0304
G1 X19.583 Y16.637 E0.0037
G1 X20.506 Y17.473 E0.0373
G1 X20.520 Y17.486 E0.0006
G1 X20.704 Y17.675 E0.0079
G1 X20.717 Y17.688 E0.0006
G1 X21.489 Y18.583 E0.0354
G1 X21.501 Y18.597 E0.0006
G1 X21.666 Y18.815 E0.0082
G1 X21.677 Y18.831 E0.0006
G1 X22.079 Y19.438 E0.0218
G1 X22.093 Y19.461 E0.0008
G1 X22.281 Y19.811 E0.0119
G1 X22.293 Y19.836 E0.0008
G1 X22.590 Y20.538 E0.0228
G1 X22.600 Y20.564 E0.0008
G1 X22.719 Y20.938 E0.0117
G1 X22.726 Y20.964 E0.0008
G1 X22.889 Y21.698 E0.0225
G1 X22.894 Y21.725 E0.0008
G1 X22.944 Y22.119 E0.0119
G1 X22.946 Y22.147 E0.0008
G1 X22.972 Y22.898 E0.0225
G1 X22.971 Y22.926 E0.0009
G1 X22.946 Y23.335 E0.0123
G1 X22.943 Y23.363 E0.0009
G1 X22.824 Y24.115 E0.0228
G1 X22.818 Y24.144 E0.0009
G1 X22.710 Y24.559 E0.0128
G1 X22.701 Y24.587 E0.0009
G1 X22.430 Y25.317 E0.0233
G1 X22.417 Y25.346 E0.0009
G1 X22.216 Y25.752 E0.0135
G1 X22.201 Y25.779 E0.0009
G1 X21.771 Y26.455 E0.0240
G1 X21.752 Y26.482 E0.0010
G1 X21.455 Y26.852 E0.0142
G1 X21.433 Y26.877 E0.0010
G1 X20.851 Y27.457 E0.0246
G1 X20.826 Y27.480 E0.0010
G1 X20.451 Y27.779 E0.0144
G1 X20.424 Y27.798 E0.0010
G1 X19.727 Y28.237 E0.0246
G1 X19.698 Y28.253 E0.0010
G1 X19.271 Y28.460 E0.0142
G1 X19.240 Y28.473 E0.0010
G1 X18.484 Y28.741 E0.0240
G1 X18.454 Y28.750 E0.0009
G1 X18.012 Y28.856 E0.0136
G1 X17.981 Y28.861 E0.0009
G1 X17.209 Y28.962 E0.0233
G1 X17.179 Y28.965 E0.0009
G1 X16.750 Y28.978 E0.0128
G1 X16.720 Y28.977 E0.0009
G1 X15.961 Y28.925 E0.0228
G1 X15.933 Y28.921 E0.0009
G1 X15.530 Y28.854 E0.0122
G1 X15.502 Y28.848 E0.0009
G1 X14.775 Y28.656 E0.0225
G1 X14.749 Y28.647 E0.0008
G1 X14.377 Y28.511 E0.0119
G1 X14.351 Y28.500 E0.0008
G1 X13.673 Y28.178 E0.0225
G1 X13.649 Y28.165 E0.0008
G1 X13.312 Y27.966 E0.0117
G1 X13.289 Y27.951 E0.0008
G1 X12.632 Y27.476 E0.0243
G1 X12.606 Y27.454 E0.0010
G1 X12.242 Y27.122 E0.0147
G1 X12.218 Y27.098 E0.0010
G1 X11.408 Y26.168 E0.0369
G1 X11.396 Y26.154 E0.0006
G1 X11.235 Y25.944 E0.0079
G1 X11.224 Y25.928 E0.0006
G1 X10.856 Y25.383 E0.0197
G1 X10.849 Y25.372 E0.0004
G1 X10.752 Y25.213 E0.0056
G1 X10.745 Y25.202 E0.0004
G1 X10.172 Y24.169 E0.0354
G1 X10.112 Y24.072 E0.0034
G1 X9.266 Y24.464 E0.0279
G1 X9.259 Y24.467 E0.0002
G1 X9.169 Y24.507 E0.0029
G1 X9.163 Y24.509 E0.0002
G1 X8.136 Y24.930 E0.0332
G1 X8.129 Y24.932 E0.0002
G1 X8.037 Y24.968 E0.0030
G1 X8.030 Y24.970 E0.0002
G1 X6.977 Y25.346 E0.0335
G1 X6.971 Y25.348 E0.0002
G1 X6.876 Y25.379 E0.0030
G1 X6.870 Y25.381 E0.0002
G1 X5.791 Y25.711 E0.0337
G1 X5.785 Y25.713 E0.0002
G1 X5.689 Y25.739 E0.0030
G1 X5.682 Y25.741 E0.0002
G1 X4.580 Y26.023 E0.0340
G1 X4.574 Y26.024 E0.0002
G1 X4.477 Y26.046 E0.0030
G1 X4.470 Y26.048 E0.0002
G1 X3.366 Y26.276 E0.0337
G1 X3.359 Y26.277 E0.0002
G1 X3.262 Y26.295 E0.0030
G1 X3.255 Y26.296 E0.0002
G1 X2.152 Y26.472 E0.0334
G1 X2.145 Y26.473 E0.0002
G1 X2.048 Y26.486 E0.0029
G1 X2.041 Y26.487 E0.0002
G1 X0.940 Y26.611 E0.0332
G1 X0.933 Y26.611 E0.0002
G1 X0.835 Y26.620 E0.0029
G1 X0.828 Y26.621 E0.0002
G1 X-0.269 Y26.694 E0.0329
G1 X-0.276 Y26.694 E0.0002
G1 X-0.374 Y26.698 E0.0029
G1 X-0.380 Y26.698 E0.0002
G1 X-1.329 Y26.718 E0.0284
G1 X-1.336 Y26.779 E0.0018
G1 X-1.404 Y27.947 E0.0350
G1 X-1.405 Y27.959 E0.0004
G1 X-1.423 Y28.137 E0.0053
G1 X-1.424 Y28.149 E0.0004
G1 X-1.511 Y28.758 E0.0184
G1 X-1.513 Y28.771 E0.0004
G1 X-1.548 Y28.957 E0.0057
G1 X-1.551 Y28.970 E0.0004
G1 X-1.711 Y29.655 E0.0210
G1 X-1.714 Y29.668 E0.0004
G1 X-1.770 Y29.864 E0.0061
G1 X-1.774 Y29.877 E0.0004
G1 X-1.992 Y30.528 E0.0206
G1 X-2.002 Y30.554 E0.0008
G1 X-2.161 Y30.913 E0.0118
G1 X-2.173 Y30.938 E0.0008
G1 X-2.539 Y31.598 E0.0226
G1 X-2.553 Y31.621 E0.0008
G1 X-2.771 Y31.942 E0.0116
G1 X-2.787 Y31.964 E0.0008
G1 X-3.260 Y32.540 E0.0223
G1 X-3.278 Y32.560 E0.0008
G1 X-3.554 Y32.840 E0.0118
G1 X-3.574 Y32.859 E0.0008
G1 X-4.143 Y33.340 E0.0223
G1 X-4.166 Y33.357 E0.0008
G1 X-4.499 Y33.588 E0.0121
G1 X-4.523 Y33.603 E0.0008
G1 X-5.181 Y33.973 E0.0226
G1 X-5.207 Y33.987 E0.0009
G1 X-5.598 Y34.158 E0.0128
G1 X-5.625 Y34.169 E0.0009
G1 X-6.360 Y34.408 E0.0231
G1 X-6.390 Y34.416 E0.0009
G1 X-6.831 Y34.510 E0.0135
G1 X-6.862 Y34.515 E0.0009
G1 X-7.653 Y34.599 E0.0238
G1 X-7.686 Y34.600 E0.0010
G1 X-8.157 Y34.598 E0.0141
G1 X-8.190 Y34.596 E0.0010
G1 X-9.001 Y34.504 E0.0244
G1 X-9.034 Y34.498 E0.0010
G1 X-9.498 Y34.392 E0.0143
G1 X-9.530 Y34.383 E0.0010
G1 X-10.301 Y34.115 E0.0244
G1 X-10.332 Y34.102 E0.0010
G1 X-10.757 Y33.900 E0.0141
G1 X-10.786 Y33.884 E0.0010
G1 X-11.463 Y33.466 E0.0238
G1 X-11.488 Y33.448 E0.0009
G1 X-11.844 Y33.173 E0.0135
G1 X-11.868 Y33.152 E0.0009
G1 X-12.427 Y32.618 E0.0231
G1 X-12.447 Y32.596 E0.0009
G1 X-12.724 Y32.273 E0.0128
G1 X-12.743 Y32.250 E0.0009
G1 X-13.175 Y31.631 E0.0226
G1 X-13.190 Y31.607 E0.0008
G1 X-13.390 Y31.254 E0.0122
G1 X-13.403 Y31.228 E0.0008
G1 X-13.708 Y30.548 E0.0223
G1 X-13.718 Y30.523 E0.0008
G1 X-13.845 Y30.150 E0.0118
G1 X-13.853 Y30.124 E0.0008
G1 X-14.029 Y29.400 E0.0223
G1 X-14.034 Y29.374 E0.0008
G1 X-14.091 Y28.990 E0.0116
G1 X-14.094 Y28.963 E0.0008
G1 X-14.138 Y28.210 E0.0226
G1 X-14.138 Y28.182 E0.0008
G1 X-14.125 Y27.792 E0.0117
G1 X-14.123 Y27.765 E0.0008
G1 X-14.031 Y27.025 E0.0223
G1 X-14.028 Y27.005 E0.0006
G1 X-13.972 Y26.718 E0.0088
G1 X-13.968 Y26.698 E0.0006
G1 X-13.662 Y25.546 E0.0357
G1 X-13.656 Y25.527 E0.0006
G1 X-13.567 Y25.262 E0.0084
G1 X-13.560 Y25.243 E0.0006
G1 X-13.092 Y24.104 E0.0369
G1 X-13.075 Y24.055 E0.0015
G1 X-13.935 Y23.623 E0.0288
G1 X-13.941 Y23.620 E0.0002
G1 X-14.026 Y23.574 E0.0029
G1 X-14.032 Y23.571 E0.0002
G1 X-14.992 Y23.033 E0.0329
G1 X-14.998 Y23.030 E0.0002
G1 X-15.081 Y22.980 E0.0029
G1 X-15.087 Y22.977 E0.0002
G1 X-16.021 Y22.396 E0.0329
G1 X-16.027 Y22.393 E0.0002
G1 X-16.108 Y22.340 E0.0029
G1 X-16.113 Y22.336 E0.0002
G1 X-17.020 Y21.714 E0.0329
G1 X-17.026 Y21.710 E0.0002
G1 X-17.105 Y21.654 E0.0029
G1 X-17.110 Y21.650 E0.0002
G1 X-17.989 Y20.987 E0.0329
G1 X-17.994 Y20.983 E0.0002
G1 X-18.070 Y20.923 E0.0029
G1 X-18.076 Y20.918 E0.0002
G1 X-18.924 Y20.216 E0.0330
G1 X-18.929 Y20.212 E0.0002
G1 X-19.003 Y20.148 E0.0029
G1 X-19.008 Y20.143 E0.0002
G1 X-19.825 Y19.402 E0.0330
G1 X-19.830 Y19.398 E0.0002
G1 X-19.901 Y19.330 E0.0029
G1 X-19.906 Y19.326 E0.0002
G1 X-20.690 Y18.547 E0.0331
G1 X-20.695 Y18.542 E0.0002
G1 X-20.763 Y18.471 E0.0029
G1 X-20.768 Y18.466 E0.0002
G1 X-21.517 Y17.650 E0.0332
G1 X-21.521 Y17.645 E0.0002
G1 X-21.587 Y17.571 E0.0030
G1 X-21.591 Y17.566 E0.0002
G1 X-22.290 Y16.731 E0.0326
G1 X-22.315 Y16.746 E0.0009
G1 X-23.327 Y17.460 E0.0371
G1 X-23.343 Y17.470 E0.0006
G1 X-23.573 Y17.612 E0.0081
G1 X-23.590 Y17.621 E0.0006
G1 X-24.680 Y18.200 E0.0369
G1 X-24.698 Y18.209 E0.0006
G1 X-24.974 Y18.331 E0.0090
G1 X-24.994 Y18.339 E0.0006
G1 X-25.675 Y18.586 E0.0217
G1 X-25.701 Y18.594 E0.0008
G1 X-26.076 Y18.693 E0.0116
G1 X-26.103 Y18.699 E0.0008
G1 X-26.846 Y18.824 E0.0226
G1 X-26.873 Y18.827 E0.0008
G1 X-27.261 Y18.857 E0.0116
G1 X-27.288 Y18.858 E0.0008
G1 X-28.034 Y18.848 E0.0223
G1 X-28.061 Y18.846 E0.0008
G1 X-28.453 Y18.805 E0.0118
G1 X-28.480 Y18.801 E0.0008
G1 X-29.212 Y18.655 E0.0223
G1 X-29.239 Y18.648 E0.0008
G1 X-29.629 Y18.531 E0.0122
G1 X-29.655 Y18.522 E0.0008
G1 X-30.355 Y18.238 E0.0226
G1 X-30.382 Y18.225 E0.0009
