; G-Code generated by Simplify3D(R) Version 4.0.0
; Oct 8, 2017 at 6:00:53 PM
; Settings Summary
;   processName,Process1
;   applyToModels,a7c35424-3063-49e1-a8ca-53b0a508d878
;   profileName,Qidi Technology Qidi Tech I (modified)
;   profileVersion,2017-08-27 23:50:31
;   baseProfile,
;   printMaterial,PLA
;   printQuality,Medium
;   printExtruders,Right Extruder Only
;   extruderName,Right Extruder,Left Extruder
;   extruderToolheadNumber,0,1
;   extruderDiameter,0.4,0.4
;   extruderAutoWidth,0,0
;   extruderWidth,0.4,0.4
;   extrusionMultiplier,0.9,0.9
;   extruderUseRetract,1,1
;   extruderRetractionDistance,1,1
;   extruderExtraRestartDistance,0,0
;   extruderRetractionZLift,0,0
;   extruderRetractionSpeed,1200,1200
;   extruderUseCoasting,0,0
;   extruderCoastingDistance,0.2,0.2
;   extruderUseWipe,0,0
;   extruderWipeDistance,5,5
;   primaryExtruder,0
;   layerHeight,0.2
;   topSolidLayers,3
;   bottomSolidLayers,3
;   perimeterOutlines,2
;   printPerimetersInsideOut,1
;   startPointOption,2
;   startPointOriginX,0
;   startPointOriginY,0
;   sequentialIslands,0
;   spiralVaseMode,0
;   firstLayerHeightPercentage,90
;   firstLayerWidthPercentage,100
;   firstLayerUnderspeed,0.5
;   useRaft,0
;   raftExtruder,0
;   raftTopLayers,3
;   raftBaseLayers,2
;   raftOffset,3
;   raftSeparationDistance,0.14
;   raftTopInfill,100
;   aboveRaftSpeedMultiplier,0.3
;   useSkirt,1
;   skirtExtruder,0
;   skirtLayers,1
;   skirtOutlines,2
;   skirtOffset,4
;   usePrimePillar,0
;   primePillarExtruder,999
;   primePillarWidth,12
;   primePillarLocation,7
;   primePillarSpeedMultiplier,1
;   useOozeShield,0
;   oozeShieldExtruder,999
;   oozeShieldOffset,2
;   oozeShieldOutlines,1
;   oozeShieldSidewallShape,1
;   oozeShieldSidewallAngle,30
;   oozeShieldSpeedMultiplier,1
;   infillExtruder,0
;   internalInfillPattern,Fast Honeycomb
;   externalInfillPattern,Rectilinear
;   infillPercentage,10
;   outlineOverlapPercentage,10
;   infillExtrusionWidthPercentage,100
;   minInfillLength,5
;   infillLayerInterval,1
;   internalInfillAngles,0
;   overlapInternalInfillAngles,0
;   externalInfillAngles,45,-45
;   generateSupport,0
;   supportExtruder,0
;   supportInfillPercentage,15
;   supportExtraInflation,0
;   supportBaseLayers,0
;   denseSupportExtruder,0
;   denseSupportLayers,0
;   denseSupportInfillPercentage,70
;   supportLayerInterval,1
;   supportHorizontalPartOffset,0.3
;   supportUpperSeparationLayers,1
;   supportLowerSeparationLayers,1
;   supportType,0
;   supportGridSpacing,4
;   maxOverhangAngle,45
;   supportAngles,0
;   temperatureName,Right Extruder,Left Extruder,Heated Build Platform
;   temperatureNumber,0,1,0
;   temperatureSetpointCount,1,1,1
;   temperatureSetpointLayers,1,1,1
;   temperatureSetpointTemperatures,225,0,50
;   temperatureStabilizeAtStartup,0,0,0
;   temperatureHeatedBed,0,0,1
;   temperatureRelayBetweenLayers,0,0,0
;   temperatureRelayBetweenLoops,0,0,0
;   fanLayers,1,2
;   fanSpeeds,0,100
;   blipFanToFullPower,0
;   adjustSpeedForCooling,1
;   minSpeedLayerTime,15
;   minCoolingSpeedSlowdown,20
;   increaseFanForCooling,0
;   minFanLayerTime,45
;   maxCoolingFanSpeed,100
;   increaseFanForBridging,1
;   bridgingFanSpeed,100
;   use5D,1
;   relativeEdistances,1
;   allowEaxisZeroing,0
;   independentExtruderAxes,1
;   includeM10123,0
;   stickySupport,1
;   applyToolheadOffsets,0
;   gcodeXoffset,0
;   gcodeYoffset,0
;   gcodeZoffset,0
;   overrideMachineDefinition,1
;   machineTypeOverride,0
;   strokeXoverride,225
;   strokeYoverride,145
;   strokeZoverride,150
;   originOffsetXoverride,112.5
;   originOffsetYoverride,72.5
;   originOffsetZoverride,0
;   homeXdirOverride,1
;   homeYdirOverride,1
;   homeZdirOverride,-1
;   flipXoverride,1
;   flipYoverride,-1
;   flipZoverride,1
;   toolheadOffsets,0,0|34,0|0,0|0,0|0,0|0,0
;   overrideFirmwareConfiguration,1
;   firmwareTypeOverride,MakerBot/Sailfish Firmware
;   GPXconfigOverride,r1d
;   baudRateOverride,115200
;   overridePrinterModels,1
;   printerModelsOverride,MakerBot_Replicator1.stl
;   startingGcode,M73 P0 ; Enable build progress,G162 X Y F3000 ; Home XY maximum,G161 Z F1200 ; Home Z minimum,G92 Z-5 ; Set Z to -5,G1 Z0 ; Move Z to 0,G161 Z F100 ; Home Z slowly,M132 X Y Z A B ; Recall home offsets,M135 T0 ; Load right extruder offsets,G1 X-110 Y-70 Z30 F9000 ; Move to wait position off table,G130 X20 Y20 Z20 A20 B20 ; Lower stepper Vrefs while heating,M126 S[fan_speed_pwm] ; Set fan speed,M140 S[bed0_temperature] T0 ; Heat buildplate ,M134 T0 ; Stabilize bed temperature,M104 S[extruder0_temperature] T0 ; Heat right extruder,M133 T0 ; Stabilize right extruder temperature,G130 X127 Y127 Z40 A127 B127 ; Default stepper Vrefs,G92 A0 B0 ; Zero extruders,G1 X100 Y-70 F9000 ; Move to front right corner of bed,G1 Z0.3 F6000 ; Move down to purge,G1 X-90 Y-70 E24 F2000 ; Extrude a line of filament across the front edge of the bed,G1 X-100 Y-70 F180 ; Wait for ooze,G1 X-110 Y-70 F5000 ; Fast wipe,G1 Z0.5 F100 ; Lift,M73 P1 ; @body (notify GPX body has started)
;   layerChangeGcode,
;   retractionGcode,
;   toolChangeGcode,
;   endingGcode,M73 P100 ; end build progress,G1 Z150 F1000 ; send Z axis to bottom of machine,M140 S0 T0 ; cool down HBP,M104 S0 T0 ; cool down right extruder,M104 S0 T1 ; cool down left extruder,M127 ; stop blower fan,G162 X Y F3000 ; home XY maximum,M18 ; disable stepper,M72 P1 ; play Ta-Da song
;   exportFileFormat,x3g
;   celebration,0
;   celebrationSong,Random Song
;   postProcessing,
;   defaultSpeed,3600
;   outlineUnderspeed,0.5
;   solidInfillUnderspeed,0.8
;   supportUnderspeed,0.8
;   rapidXYspeed,4200
;   rapidZspeed,1200
;   minBridgingArea,50
;   bridgingExtraInflation,0
;   bridgingExtrusionMultiplier,1
;   bridgingSpeedMultiplier,0.8
;   useFixedBridgingAngle,0
;   fixedBridgingAngle,0
;   applyBridgingToPerimeters,0
;   filamentDiameters,1.75|1.75|1.75|1.75|1.75|1.75
;   filamentPricesPerKg,15.11|46|46|46|46|46
;   filamentDensities,1.25|1.25|1.25|1.25|1.25|1.25
;   useMinPrintHeight,0
;   minPrintHeight,0
;   useMaxPrintHeight,0
;   maxPrintHeight,0
;   useDiaphragm,0
;   diaphragmLayerInterval,20
;   robustSlicing,1
;   mergeAllIntoSolid,0
;   onlyRetractWhenCrossingOutline,1
;   retractBetweenLayers,1
;   useRetractionMinTravel,0
;   retractionMinTravel,3
;   retractWhileWiping,0
;   onlyWipeOutlines,1
;   avoidCrossingOutline,0
;   maxMovementDetourFactor,3
;   toolChangeRetractionDistance,12
;   toolChangeExtraRestartDistance,-0.5
;   toolChangeRetractionSpeed,600
;   externalThinWallType,0
;   internalThinWallType,2
;   thinWallAllowedOverlapPercentage,10
;   singleExtrusionMinLength,1
;   singleExtrusionMinPrintingWidthPercentage,50
;   singleExtrusionMaxPrintingWidthPercentage,200
;   singleExtrusionEndpointExtension,0.2
;   horizontalSizeCompensation,0
G90
M83
M73 P0 ; Enable build progress
G162 X Y F3000 ; Home XY maximum
G161 Z F1200 ; Home Z minimum
G92 Z-5 ; Set Z to -5
G1 Z0 ; Move Z to 0
G161 Z F100 ; Home Z slowly
M132 X Y Z A B ; Recall home offsets
M135 T0 ; Load right extruder offsets
G1 X-110 Y-70 Z30 F9000 ; Move to wait position off table
G130 X20 Y20 Z20 A20 B20 ; Lower stepper Vrefs while heating
M127 ; Set fan speed
M140 S50 T0 ; Heat buildplate 
M134 T0 ; Stabilize bed temperature
M104 S225 T0 ; Heat right extruder
M133 T0 ; Stabilize right extruder temperature
G130 X127 Y127 Z40 A127 B127 ; Default stepper Vrefs
G92 A0 B0 ; Zero extruders
G1 X100 Y-70 F9000 ; Move to front right corner of bed
G1 Z0.3 F6000 ; Move down to purge
G1 X-90 Y-70 E24 F2000 ; Extrude a line of filament across the front edge of the bed
G1 X-100 Y-70 F180 ; Wait for ooze
G1 X-110 Y-70 F5000 ; Fast wipe
G1 Z0.5 F100 ; Lift
M73 P1 ; @body (notify GPX body has started)
G1 E-1.0000 F1200
G1 Z0.180 F1200
; process Process1
; layer 1, Z = 0.180
M135 T0
; tool H0.200 W0.400
; skirt
G1 X38.513 Y6.717 F4200
G1 E1.0000 F360
G1 X38.432 Y7.227 E0.0154 F1800
G1 X38.431 Y7.234 E0.0002
G1 X38.414 Y7.331 E0.0030
G1 X38.412 Y7.337 E0.0002
G1 X38.053 Y9.081 E0.0533
G1 X38.051 Y9.088 E0.0002
G1 X38.029 Y9.183 E0.0029
G1 X38.028 Y9.190 E0.0002
G1 X37.590 Y10.910 E0.0531
G1 X37.589 Y10.917 E0.0002
G1 X37.563 Y11.011 E0.0029
G1 X37.561 Y11.017 E0.0002
G1 X37.047 Y12.711 E0.0530
G1 X37.045 Y12.718 E0.0002
G1 X37.015 Y12.810 E0.0029
G1 X37.013 Y12.816 E0.0002
G1 X36.425 Y14.482 E0.0529
G1 X36.422 Y14.488 E0.0002
G1 X36.388 Y14.579 E0.0029
G1 X36.386 Y14.585 E0.0002
G1 X35.724 Y16.220 E0.0528
G1 X35.722 Y16.226 E0.0002
G1 X35.684 Y16.314 E0.0029
G1 X35.681 Y16.321 E0.0002
G1 X34.948 Y17.922 E0.0527
G1 X34.945 Y17.928 E0.0002
G1 X34.903 Y18.015 E0.0029
G1 X34.900 Y18.021 E0.0002
G1 X34.097 Y19.586 E0.0527
G1 X34.094 Y19.592 E0.0002
G1 X34.049 Y19.677 E0.0029
G1 X34.045 Y19.682 E0.0002
G1 X33.174 Y21.210 E0.0526
G1 X33.171 Y21.216 E0.0002
G1 X33.122 Y21.298 E0.0029
G1 X33.118 Y21.304 E0.0002
G1 X32.180 Y22.791 E0.0526
G1 X32.176 Y22.796 E0.0002
G1 X32.123 Y22.876 E0.0029
G1 X32.120 Y22.882 E0.0002
G1 X31.116 Y24.326 E0.0527
G1 X31.112 Y24.332 E0.0002
G1 X31.056 Y24.409 E0.0029
G1 X31.052 Y24.414 E0.0002
G1 X29.984 Y25.814 E0.0527
G1 X29.980 Y25.819 E0.0002
G1 X29.920 Y25.894 E0.0029
G1 X29.916 Y25.899 E0.0002
G1 X28.785 Y27.250 E0.0527
G1 X28.781 Y27.256 E0.0002
G1 X28.718 Y27.328 E0.0029
G1 X28.713 Y27.333 E0.0002
G1 X28.365 Y27.713 E0.0154
G1 X28.812 Y28.221 E0.0202
G1 X29.624 Y29.060 E0.0349
G1 X30.537 Y29.963 E0.0384
G1 X32.024 Y31.310 E0.0601
G1 X32.033 Y31.318 E0.0004
G1 X32.159 Y31.441 E0.0053
G1 X32.167 Y31.450 E0.0004
G1 X32.776 Y32.099 E0.0266
G1 X32.784 Y32.108 E0.0004
G1 X32.896 Y32.236 E0.0051
G1 X32.903 Y32.246 E0.0004
G1 X33.520 Y33.017 E0.0296
G1 X33.528 Y33.028 E0.0004
G1 X33.642 Y33.185 E0.0058
G1 X33.650 Y33.196 E0.0004
G1 X34.170 Y33.982 E0.0282
G1 X34.184 Y34.006 E0.0008
G1 X34.371 Y34.354 E0.0118
G1 X34.382 Y34.378 E0.0008
G1 X34.776 Y35.306 E0.0302
G1 X34.785 Y35.332 E0.0008
G1 X34.904 Y35.705 E0.0117
G1 X34.912 Y35.732 E0.0008
G1 X35.126 Y36.699 E0.0296
G1 X35.131 Y36.726 E0.0008
G1 X35.181 Y37.120 E0.0119
G1 X35.183 Y37.147 E0.0008
G1 X35.216 Y38.131 E0.0295
G1 X35.216 Y38.159 E0.0009
G1 X35.191 Y38.568 E0.0122
G1 X35.188 Y38.596 E0.0009
G1 X35.034 Y39.573 E0.0296
G1 X35.028 Y39.602 E0.0009
G1 X34.919 Y40.017 E0.0128
G1 X34.910 Y40.045 E0.0009
G1 X34.561 Y40.986 E0.0300
G1 X34.548 Y41.015 E0.0009
G1 X34.347 Y41.420 E0.0135
G1 X34.331 Y41.448 E0.0009
G1 X33.781 Y42.315 E0.0307
G1 X33.762 Y42.341 E0.0010
G1 X33.465 Y42.711 E0.0142
G1 X33.443 Y42.736 E0.0010
G1 X32.698 Y43.479 E0.0315
G1 X32.673 Y43.502 E0.0010
G1 X32.298 Y43.801 E0.0144
G1 X32.271 Y43.820 E0.0010
G1 X31.380 Y44.381 E0.0315
G1 X31.351 Y44.397 E0.0010
G1 X30.923 Y44.604 E0.0142
G1 X30.892 Y44.617 E0.0010
G1 X29.924 Y44.961 E0.0308
G1 X29.893 Y44.970 E0.0009
G1 X29.452 Y45.075 E0.0136
G1 X29.421 Y45.081 E0.0009
G1 X28.426 Y45.211 E0.0301
G1 X28.396 Y45.214 E0.0009
G1 X27.967 Y45.227 E0.0128
G1 X27.937 Y45.226 E0.0009
G1 X26.951 Y45.158 E0.0296
G1 X26.922 Y45.154 E0.0009
G1 X26.519 Y45.088 E0.0122
G1 X26.491 Y45.082 E0.0009
G1 X25.540 Y44.829 E0.0295
G1 X25.514 Y44.821 E0.0008
G1 X25.142 Y44.684 E0.0119
G1 X25.116 Y44.674 E0.0008
G1 X24.222 Y44.249 E0.0296
G1 X24.198 Y44.236 E0.0008
G1 X23.861 Y44.037 E0.0117
G1 X23.839 Y44.022 E0.0008
G1 X23.023 Y43.433 E0.0301
G1 X23.002 Y43.416 E0.0008
G1 X22.707 Y43.160 E0.0117
G1 X22.687 Y43.141 E0.0008
G1 X22.053 Y42.479 E0.0274
G1 X22.045 Y42.469 E0.0004
G1 X21.925 Y42.333 E0.0054
G1 X21.916 Y42.323 E0.0004
G1 X21.298 Y41.557 E0.0295
G1 X21.290 Y41.547 E0.0004
G1 X21.179 Y41.396 E0.0056
G1 X21.172 Y41.386 E0.0004
G1 X20.666 Y40.635 E0.0271
G1 X20.659 Y40.624 E0.0004
G1 X20.563 Y40.466 E0.0055
G1 X20.556 Y40.455 E0.0004
G1 X19.593 Y38.718 E0.0594
G1 X18.924 Y37.640 E0.0380
G1 X18.287 Y36.664 E0.0349
G1 X17.898 Y36.127 E0.0198
G1 X17.879 Y36.125 E0.0006
G1 X17.536 Y36.324 E0.0119
G1 X17.530 Y36.327 E0.0002
G1 X17.445 Y36.374 E0.0029
G1 X17.439 Y36.377 E0.0002
G1 X15.876 Y37.190 E0.0527
G1 X15.870 Y37.193 E0.0002
G1 X15.782 Y37.237 E0.0029
G1 X15.776 Y37.239 E0.0002
G1 X14.168 Y37.985 E0.0530
G1 X14.162 Y37.988 E0.0002
G1 X14.071 Y38.027 E0.0029
G1 X14.065 Y38.030 E0.0002
G1 X12.414 Y38.705 E0.0534
G1 X12.407 Y38.708 E0.0002
G1 X12.315 Y38.743 E0.0030
G1 X12.308 Y38.745 E0.0002
G1 X10.615 Y39.349 E0.0538
G1 X10.608 Y39.351 E0.0002
G1 X10.514 Y39.382 E0.0030
G1 X10.507 Y39.384 E0.0002
G1 X8.774 Y39.913 E0.0543
G1 X8.767 Y39.915 E0.0002
G1 X8.671 Y39.942 E0.0030
G1 X8.664 Y39.943 E0.0002
G1 X6.892 Y40.395 E0.0547
G1 X6.885 Y40.397 E0.0002
G1 X6.789 Y40.419 E0.0030
G1 X6.782 Y40.421 E0.0002
G1 X5.006 Y40.787 E0.0543
G1 X5.000 Y40.788 E0.0002
G1 X4.902 Y40.806 E0.0030
G1 X4.896 Y40.807 E0.0002
G1 X3.122 Y41.088 E0.0538
G1 X3.115 Y41.089 E0.0002
G1 X3.017 Y41.103 E0.0030
G1 X3.011 Y41.104 E0.0002
G1 X1.241 Y41.302 E0.0533
G1 X1.234 Y41.303 E0.0002
G1 X1.136 Y41.311 E0.0029
G1 X1.129 Y41.312 E0.0002
G1 X-0.634 Y41.428 E0.0529
G1 X-0.641 Y41.429 E0.0002
G1 X-0.739 Y41.433 E0.0029
G1 X-0.746 Y41.433 E0.0002
G1 X-2.501 Y41.469 E0.0525
G1 X-2.507 Y41.469 E0.0002
G1 X-2.605 Y41.469 E0.0029
G1 X-2.611 Y41.469 E0.0002
G1 X-4.356 Y41.425 E0.0522
G1 X-4.362 Y41.425 E0.0002
G1 X-4.459 Y41.421 E0.0029
G1 X-4.466 Y41.420 E0.0002
G1 X-4.899 Y41.390 E0.0130
G1 X-4.996 Y41.931 E0.0165
G1 X-5.146 Y43.086 E0.0349
G1 X-5.282 Y44.348 E0.0380
G1 X-5.398 Y46.345 E0.0599
G1 X-5.399 Y46.358 E0.0004
G1 X-5.417 Y46.537 E0.0054
G1 X-5.419 Y46.549 E0.0004
G1 X-5.546 Y47.443 E0.0270
G1 X-5.549 Y47.456 E0.0004
G1 X-5.584 Y47.643 E0.0057
G1 X-5.586 Y47.656 E0.0004
G1 X-5.824 Y48.671 E0.0312
G1 X-5.828 Y48.685 E0.0004
G1 X-5.884 Y48.880 E0.0061
G1 X-5.888 Y48.894 E0.0004
G1 X-6.187 Y49.783 E0.0281
G1 X-6.197 Y49.809 E0.0008
G1 X-6.355 Y50.166 E0.0117
G1 X-6.367 Y50.191 E0.0008
G1 X-6.851 Y51.063 E0.0299
G1 X-6.865 Y51.086 E0.0008
G1 X-7.083 Y51.407 E0.0116
G1 X-7.099 Y51.429 E0.0008
G1 X-7.721 Y52.187 E0.0294
G1 X-7.740 Y52.208 E0.0008
G1 X-8.015 Y52.488 E0.0118
G1 X-8.036 Y52.506 E0.0008
G1 X-8.781 Y53.136 E0.0292
G1 X-8.803 Y53.153 E0.0008
G1 X-9.137 Y53.384 E0.0122
G1 X-9.161 Y53.399 E0.0008
G1 X-10.015 Y53.880 E0.0294
G1 X-10.042 Y53.894 E0.0009
G1 X-10.432 Y54.065 E0.0128
G1 X-10.460 Y54.075 E0.0009
G1 X-11.407 Y54.384 E0.0298
G1 X-11.437 Y54.392 E0.0009
G1 X-11.877 Y54.486 E0.0135
G1 X-11.908 Y54.491 E0.0009
G1 X-12.922 Y54.598 E0.0305
G1 X-12.955 Y54.600 E0.0010
G1 X-13.426 Y54.598 E0.0141
G1 X-13.459 Y54.596 E0.0010
G1 X-14.497 Y54.478 E0.0313
G1 X-14.529 Y54.472 E0.0010
G1 X-14.994 Y54.366 E0.0143
G1 X-15.026 Y54.357 E0.0010
G1 X-16.012 Y54.014 E0.0313
G1 X-16.043 Y54.001 E0.0010
G1 X-16.468 Y53.799 E0.0141
G1 X-16.497 Y53.783 E0.0010
G1 X-17.364 Y53.247 E0.0305
G1 X-17.390 Y53.229 E0.0009
G1 X-17.746 Y52.954 E0.0135
G1 X-17.769 Y52.933 E0.0009
G1 X-18.489 Y52.245 E0.0298
G1 X-18.510 Y52.223 E0.0009
G1 X-18.787 Y51.900 E0.0128
G1 X-18.805 Y51.876 E0.0009
G1 X-19.367 Y51.073 E0.0294
G1 X-19.382 Y51.049 E0.0008
G1 X-19.582 Y50.695 E0.0122
G1 X-19.595 Y50.670 E0.0008
G1 X-19.994 Y49.780 E0.0292
G1 X-20.004 Y49.754 E0.0008
G1 X-20.132 Y49.382 E0.0118
G1 X-20.139 Y49.355 E0.0008
G1 X-20.371 Y48.402 E0.0294
G1 X-20.376 Y48.375 E0.0008
G1 X-20.433 Y47.991 E0.0116
G1 X-20.436 Y47.965 E0.0008
G1 X-20.494 Y46.969 E0.0299
G1 X-20.494 Y46.941 E0.0008
G1 X-20.481 Y46.551 E0.0117
G1 X-20.479 Y46.524 E0.0008
G1 X-20.359 Y45.559 E0.0291
G1 X-20.357 Y45.545 E0.0004
G1 X-20.322 Y45.341 E0.0062
G1 X-20.319 Y45.327 E0.0004
G1 X-20.103 Y44.358 E0.0297
G1 X-20.100 Y44.346 E0.0004
G1 X-20.052 Y44.169 E0.0055
G1 X-20.049 Y44.157 E0.0004
G1 X-19.779 Y43.297 E0.0270
G1 X-19.774 Y43.285 E0.0004
G1 X-19.712 Y43.112 E0.0055
G1 X-19.707 Y43.100 E0.0004
G1 X-18.952 Y41.261 E0.0595
G1 X-18.524 Y40.060 E0.0382
G1 X-18.156 Y38.952 E0.0349
G1 X-18.006 Y38.417 E0.0166
G1 X-18.432 Y38.249 E0.0137
G1 X-18.438 Y38.247 E0.0002
G1 X-18.528 Y38.209 E0.0029
G1 X-18.534 Y38.206 E0.0002
G1 X-20.151 Y37.482 E0.0530
G1 X-20.157 Y37.479 E0.0002
G1 X-20.245 Y37.437 E0.0029
G1 X-20.251 Y37.434 E0.0002
G1 X-21.832 Y36.639 E0.0530
G1 X-21.838 Y36.636 E0.0002
